assets/Hospital/Flat/hospital_flat.svg

<svg width="32" height="32" viewBox="0 0 32 32" fill="none" xmlns="http://www.w3.org/2000/svg">
<path d="M5 5C5 3.89543 5.89543 3 7 3H22C23.1046 3 24 3.89543 24 5V23L9 30H5V5Z" fill="#998EA4"/>
<path d="M9 21C9 19.8954 9.89543 19 11 19H26C27.1046 19 28 19.8954 28 21V30H26L23 29L20 30H17.5L16.25 29L15 30H13.5L12.25 29L11 30H9V21Z" fill="#B4ACBC"/>
<path d="M8 3C8 2.44772 8.44772 2 9 2H16C16.5523 2 17 2.44772 17 3V10C17 10.5523 16.5523 11 16 11H9C8.44772 11 8 10.5523 8 10V3Z" fill="#F3EEF8"/>
<path d="M11 21.75C11 21.3358 11.3358 21 11.75 21H25.25C25.6642 21 26 21.3358 26 21.75C26 22.1642 25.6642 22.5 25.25 22.5H11.75C11.3358 22.5 11 22.1642 11 21.75Z" fill="#F3EEF8"/>
<path d="M11.75 23.5C11.3358 23.5 11 23.8358 11 24.25C11 24.6642 11.3358 25 11.75 25H25.25C25.6642 25 26 24.6642 26 24.25C26 23.8358 25.6642 23.5 25.25 23.5H11.75Z" fill="#F3EEF8"/>
<path d="M11.5 28H13.5V30H11V28.5C11 28.2239 11.2239 28 11.5 28Z" fill="#BB1D80"/>
<path d="M15 28H17C17.2761 28 17.5 28.2239 17.5 28.5V30H15V28Z" fill="#BB1D80"/>
<path d="M20 28.5C20 28.2239 20.2239 28 20.5 28H25.5C25.7761 28 26 28.2239 26 28.5V30H20V28.5Z" fill="#BB1D80"/>
<path d="M12.5 3.5C11.9477 3.5 11.5 3.94772 11.5 4.5V5.5H10.5C9.94772 5.5 9.5 5.94772 9.5 6.5C9.5 7.05228 9.94772 7.5 10.5 7.5H11.5V8.5C11.5 9.05228 11.9477 9.5 12.5 9.5C13.0523 9.5 13.5 9.05228 13.5 8.5V7.5H14.5C15.0523 7.5 15.5 7.05228 15.5 6.5C15.5 5.94772 15.0523 5.5 14.5 5.5H13.5V4.5C13.5 3.94772 13.0523 3.5 12.5 3.5Z" fill="#F8312F"/>
</svg>

<svg xmlns="http://www.w3.org/2000/svg" width="32" height="32" fill="none"><path fill="#998EA4" d="M5 5a2 2 0 0 1 2-2h15a2 2 0 0 1 2 2v18L9 30H5V5Z"/><path fill="#B4ACBC" d="M9 21a2 2 0 0 1 2-2h15a2 2 0 0 1 2 2v9h-2l-3-1-3 1h-2.5l-1.25-1L15 30h-1.5l-1.25-1L11 30H9v-9Z"/><path fill="#F3EEF8" d="M8 3a1 1 0 0 1 1-1h7a1 1 0 0 1 1 1v7a1 1 0 0 1-1 1H9a1 1 0 0 1-1-1V3ZM11 21.75a.75.75 0 0 1 .75-.75h13.5a.75.75 0 0 1 0 1.5h-13.5a.75.75 0 0 1-.75-.75ZM11.75 23.5a.75.75 0 0 0 0 1.5h13.5a.75.75 0 0 0 0-1.5h-13.5Z"/><path fill="#BB1D80" d="M11.5 28h2v2H11v-1.5a.5.5 0 0 1 .5-.5ZM15 28h2a.5.5 0 0 1 .5.5V30H15v-2ZM20 28.5a.5.5 0 0 1 .5-.5h5a.5.5 0 0 1 .5.5V30h-6v-1.5Z"/><path fill="#F8312F" d="M12.5 3.5a1 1 0 0 0-1 1v1h-1a1 1 0 0 0 0 2h1v1a1 1 0 1 0 2 0v-1h1a1 1 0 1 0 0-2h-1v-1a1 1 0 0 0-1-1Z"/></svg>
